X:1
T: Miss J. Rose's Reel
C:
R:Jig
Q:180
K:F
M:6/8
L:1/16
AB|:c4A2 A2F2A2|d2e2f2 B2c2d2|c4A2 A2F2A2|G2A2F2 E2D2C2|
c4A2 A2F2A2|d2e2f2 B2c2d2|c2B2A2 B2A2G2|1A2F2F2 F6:|2A2F2F2 F4|
|:c2|A2B2c2 c2A2F2|d2e2f2 f4c2|A2B2c2 c2A2F2|E2F2G2 G2E2C2|
|1A2B2c2 c2A2F2|d2e2f2 f4c2|d2c2B2 A2B2G2|A2F2F2 F4:|
|2D2E2F2 E2F2G2|F2G2A2 B2c2d2|c2A2F2 G2E2C2|F6F4||
